img/union-19.svg

<svg fill="none" height="32" viewBox="0 0 31 32" width="31" xmlns="http://www.w3.org/2000/svg"><path d="m.618652 15.8631h-.515597zm0 14.6945h-.515597v.5156h.515597zm14.694548 0v-.5156zm0-28.87342c7.8308 0 14.1789 6.34812 14.1789 14.17892h1.0312c0-8.40032-6.8098-15.210114-15.2101-15.210114zm-14.17895 14.17892c0-7.8308 6.34812-14.17892 14.17895-14.17892v-1.031194c-8.40035 0-15.210146 6.809804-15.210145 15.210114zm0 14.6945v-14.6945h-1.031195v14.6945zm14.17895-.5156h-14.694548v1.0312h14.694548zm14.1789-14.1789c0 7.8308-6.3481 14.1789-14.1789 14.1789v1.0312c8.4003 0 15.2101-6.8098 15.2101-15.2101z" fill="#5b57ca"/></svg>

<svg width="31" height="32" viewBox="0 0 31 32" fill="none" xmlns="http://www.w3.org/2000/svg">
<path d="M0.618652 15.8631L0.103055 15.8631L0.618652 15.8631ZM0.618652 30.5576L0.103055 30.5576L0.103055 31.0732L0.618652 31.0732L0.618652 30.5576ZM15.3132 30.5576L15.3132 30.042L15.3132 30.5576ZM15.3132 1.68418C23.144 1.68418 29.4921 8.0323 29.4921 15.8631L30.5233 15.8631C30.5233 7.46278 23.7135 0.652986 15.3132 0.652986L15.3132 1.68418ZM1.13425 15.8631C1.13425 8.0323 7.48237 1.68418 15.3132 1.68418L15.3132 0.652986C6.91285 0.652986 0.103054 7.46279 0.103055 15.8631L1.13425 15.8631ZM1.13425 30.5576L1.13425 15.8631L0.103055 15.8631L0.103055 30.5576L1.13425 30.5576ZM15.3132 30.042L0.618652 30.042L0.618652 31.0732L15.3132 31.0732L15.3132 30.042ZM29.4921 15.8631C29.4921 23.6939 23.144 30.042 15.3132 30.042L15.3132 31.0732C23.7135 31.0732 30.5233 24.2634 30.5233 15.8631L29.4921 15.8631Z" fill="#5B57CA"/>
</svg>
